X: 1
T:Pulaski Guards' -- Reel
M:2/4
L:1/16
R:reel
B:Ryan's Mammoth Collection
N:296
Z:Contributed by Ray Davies,  ray:davies99.freeserve.co.uk
K:Bb
"_mf"vF2B2 B2D2 | vC2vcB AFGA | {c}BABc defg | (fd)ce dAu((3BAG) |
vF2B2 B2D2 | vC2vcB AFGA | {c}BABc defg | (fd)ce dBB2 :|
|:"_f"vdBFB DBFB | AcFA cFAc | dBFB DBFB | DECE v"4"(DB,)B,2 |
vdBFB DBFB | AcFA cFAc | dBcA BF((3GAB) |1 FDCD (B,2F2) :|2 FDCD B,4|]
